svgs/sharp-regular/house-chimney.svg

<svg xmlns="http://www.w3.org/2000/svg" viewBox="0 0 576 512"><!--! Font Awesome Pro 6.6.0 by @fontawesome - https://fontawesome.com License - https://fontawesome.com/license (Commercial License) Copyright 2024 Fonticons, Inc. --><path d="M288 .5l15.5 13.2L464 149.9 464 88l0-24 48 0 0 24 0 96 0 6.6 55.5 47.1-31.1 36.6L512 253.5 512 488l0 24-24 0L88 512l-24 0 0-24 0-234.5L39.5 274.3 8.5 237.7l264-224L288 .5zM112 212.8L112 464l80 0 0-168 0-24 24 0 144 0 24 0 0 24 0 168 80 0 0-251.2L288 63.5 112 212.8zM336 320l-96 0 0 144 96 0 0-144z"/></svg>

<svg xmlns="http://www.w3.org/2000/svg" viewBox="0 0 576 512"><!--! Font Awesome Pro 6.4.0 by @fontawesome - https://fontawesome.com License - https://fontawesome.com/license (Commercial License) Copyright 2023 Fonticons, Inc. --><path d="M288 .5l15.5 13.2L464 149.9V88 64h48V88v96 6.6l55.5 47.1-31.1 36.6L512 253.5V488v24H488 88 64V488 253.5L39.5 274.3 8.5 237.7l264-224L288 .5zM112 212.8V464h80V296 272h24H360h24v24V464h80V212.8L288 63.5 112 212.8zM336 320H240V464h96V320z"/></svg>
